X:81
T:Morfa Rhuddlan - Rhuddlan Marsh
M:3/4
L:1/8
Q:120
C:Trad.
R:Waltz
K:G
E2 E2 GB | A2 A2 G2 | F2 FG FE | B2 BA GF | E2 EF GB | A2 cB AG | F2 E2
^D2 | E6 :|| B2 Bc dB | A2 AB cA | G2 G2 F2 | F2 G4 | B
2 Bc dB | A2 AB cA | Gc BA GF | F2 G4 | B2 GA BG | A
2 FG AF | G2 EG FE | ^D2 E2 F2 | E2 EF GB | A2 cB AG | F2 E2 ^D2 | E
6 ||
